X:8271
T:Paddy O'Rafferty
C:anon.
O:Ireland
R:Jig
F:http://abc.musicaviva.com/tunes/ireland/paddy-orafferty.abc
%From the abc homepage.
%Posted December 18th 2001 at abcusers by Erik Ronstr\"om
M:6/8
L:1/8
K:D
dff cee|def gfe|dff cee|dfe dBA|dff cee|def gfe|faf gfe|1 dfe dBA:|2dfe dcB||
~A3 B3|gfe fdB|AFA B2c|dfe dcB|~A3 ~B3|efe efg|faf gfe|1 dfe dcB:|2 dfedBA||
fAA eAA|def gfe|fAA eAA|dfe dBA|fAA eAA|def gfe|faf gfe|dfe dBA:|
dff cee|def gfe|dff cee|dfe dBA|dff cee|def gfe|faf gfe|1 dfe dBA:|2dfe dcB||
~A3 B3|gfe fdB|AFA B2c|dfe dcB|~A3 ~B3|efe efg|faf gfe|1 dfe dcB:|2 dfedBA||
fAA eAA|def gfe|fAA eAA|dfe dBA|fAA eAA|def gfe|faf gfe|dfe dBA:|
W:
W:
W:  From Musica Viva - http://www.musicaviva.com
W:  the Internet center for free sheet music downloads.
